src/icons/svg/all.svg

<?xml version="1.0" standalone="no"?><!DOCTYPE svg PUBLIC "-//W3C//DTD SVG 1.1//EN" "http://www.w3.org/Graphics/SVG/1.1/DTD/svg11.dtd"><svg t="1557388816493" class="icon" style="" viewBox="0 0 1024 1024" version="1.1" xmlns="http://www.w3.org/2000/svg" p-id="2708" xmlns:xlink="http://www.w3.org/1999/xlink" width="128" height="128"><defs><style type="text/css"></style></defs><path d="M460.8 486.4 486.4 486.4 486.4 460.8 486.4 243.2C486.4 108.884349 377.51565 0 243.2 0 108.884349 0 0 108.884349 0 243.2 0 377.51565 108.884349 486.4 243.2 486.4L460.8 486.4ZM51.2 243.2C51.2 137.161328 137.161328 51.2 243.2 51.2 349.238671 51.2 435.2 137.161328 435.2 243.2L435.2 460.8 460.8 435.2 243.2 435.2C137.161328 435.2 51.2 349.238671 51.2 243.2Z" p-id="2709"></path><path d="M460.8 588.8 435.2 563.2 435.2 780.8C435.2 886.838671 349.238671 972.8 243.2 972.8 137.161328 972.8 51.2 886.838671 51.2 780.8 51.2 674.761329 137.161328 588.8 243.2 588.8L460.8 588.8ZM0 780.8C0 915.11565 108.884349 1024 243.2 1024 377.51565 1024 486.4 915.11565 486.4 780.8L486.4 563.2 486.4 537.6 460.8 537.6 243.2 537.6C108.884349 537.6 0 646.48435 0 780.8Z" p-id="2710"></path><path d="M563.2 435.2 588.8 460.8 588.8 243.2C588.8 137.161328 674.761329 51.2 780.8 51.2 886.838671 51.2 972.8 137.161328 972.8 243.2 972.8 349.238671 886.838671 435.2 780.8 435.2L563.2 435.2ZM1024 243.2C1024 108.884349 915.11565 0 780.8 0 646.48435 0 537.6 108.884349 537.6 243.2L537.6 460.8 537.6 486.4 563.2 486.4 780.8 486.4C915.11565 486.4 1024 377.51565 1024 243.2Z" p-id="2711"></path><path d="M1024 780.8C1024 646.48435 915.11565 537.6 780.8 537.6L563.2 537.6 537.6 537.6 537.6 563.2 537.6 780.8C537.6 915.11565 646.48435 1024 780.8 1024 818.513163 1024 855.051123 1015.390662 888.179087 999.065099 900.861235 992.815296 906.075682 977.467919 899.825882 964.785773 893.576079 952.103625 878.228702 946.889178 865.546554 953.138978 839.420429 966.014014 810.620764 972.8 780.8 972.8 674.761329 972.8 588.8 886.838671 588.8 780.8L588.8 563.2 563.2 588.8 780.8 588.8C886.838671 588.8 972.8 674.761329 972.8 780.8 972.8 799.469549 970.142607 817.755731 964.968006 835.279443 960.963957 848.839106 968.71031 863.07731 982.269973 867.081361 995.829636 871.085412 1010.06784 863.339057 1014.071891 849.779394 1020.63305 827.560122 1024 804.391296 1024 780.8Z" p-id="2712"></path></svg>

<svg class="icon" viewBox="0 0 1024 1024" xmlns="http://www.w3.org/2000/svg" width="128" height="128"><defs><style/></defs><path d="M460.8 486.4h25.6V243.2C486.4 108.884 377.516 0 243.2 0 108.884 0 0 108.884 0 243.2c0 134.316 108.884 243.2 243.2 243.2h217.6zM51.2 243.2c0-106.039 85.961-192 192-192s192 85.961 192 192v217.6l25.6-25.6H243.2c-106.039 0-192-85.961-192-192zM460.8 588.8l-25.6-25.6v217.6c0 106.039-85.961 192-192 192s-192-85.961-192-192 85.961-192 192-192h217.6zM0 780.8C0 915.116 108.884 1024 243.2 1024c134.316 0 243.2-108.884 243.2-243.2V537.6H243.2C108.884 537.6 0 646.484 0 780.8zM563.2 435.2l25.6 25.6V243.2c0-106.039 85.961-192 192-192s192 85.961 192 192-85.961 192-192 192H563.2zm460.8-192C1024 108.884 915.116 0 780.8 0 646.484 0 537.6 108.884 537.6 243.2v243.2h243.2c134.316 0 243.2-108.884 243.2-243.2zM1024 780.8c0-134.316-108.884-243.2-243.2-243.2H537.6v243.2c0 134.316 108.884 243.2 243.2 243.2 37.713 0 74.251-8.61 107.38-24.935 12.681-6.25 17.896-21.597 11.646-34.28-6.25-12.681-21.597-17.896-34.28-11.646C839.42 966.014 810.622 972.8 780.8 972.8c-106.039 0-192-85.961-192-192V563.2l-25.6 25.6h217.6c106.039 0 192 85.961 192 192 0 18.67-2.657 36.956-7.832 54.48-4.004 13.56 3.742 27.797 17.302 31.801 13.56 4.004 27.798-3.742 31.802-17.302 6.561-22.219 9.928-45.388 9.928-68.979z"/></svg>
